X: 7615
T: Coilsfield House
R: barndance
M: 4/4
K: Gmajor
|:GA|B2 D2 G2 B,2|G,6 AB|c2 A2 B2 G2|F A3 D3 c|
cB AG GF ED|G4 E2 C2|B,2 G2 A,2 F2|G2 G,2 G,2:|
Bc|d2 B2 d2 B2|c/d/ e3 A2 Bc|d2 G2 F2 G2|AG FE D2 Bc|
d2 B2 d2 B2|c/d/ e3 e/f/ g3|fg ag fd ef|g4 G2 ga|
b2 g2 d2 B2|c/d/ e3 A2 Bc|d2 G2 F2 G2|AG FE D2 c2|
B2 G2 D2 B,2|C2 DE H,A,2 DC|B,2 G2 A,2 F2|G2 G,2 G,4||

